X: 20781
T: Love sick Jocky
%R: air, march
B: James Oswald "The Caledonian Pocket Companion" v.2 p.78 #1
Z: 2019 John Chambers <jc:trillian.mit.edu>
N: Dots added to last notes in most strains, to fix the rhythms.
M: C|
L: 1/8
K: G
"_Slow" BA |\
G2D2 G2B2 | d3e (de)(dc) | B2G2 GAB2 | (AG)(FE) D2(dc) |\
B2D2 G2B2 | d3e (de)(dc) | B2G2 (GA)(BA) | G6 :|
|: B2 |\
A3G (FG)A2 | G2(GF) E3B | B2e2 (ef)(gf) | e6 (dc) |\
(Bc)d2 e2(AG) | (FG)A2 d2GF | (EF)G2 (GA)(Bc) | {B2}A6 (BA) |
G2D2 G2B2 | d3e (de)(dc) | B2G2 (GA)B2 | (AG)(FE) D2d2 |\
g2(gf) e2(ed) | B2e2 (de)(dc) | B2G2 (GA)(BA) | G6 :|
